svgs/solid/square-dashed.svg

<svg xmlns="http://www.w3.org/2000/svg" viewBox="0 0 448 512"><!--! Font Awesome Pro 6.1.1 by @fontawesome - https://fontawesome.com License - https://fontawesome.com/license (Commercial License) Copyright 2022 Fonticons, Inc. --><path d="M96 32H128V96H96C78.33 96 64 110.3 64 128V160H0V128C0 74.98 42.98 32 96 32zM64 192V320H0V192H64zM448 192V320H384V192H448zM384 160V128C384 110.3 369.7 96 352 96H320V32H352C405 32 448 74.98 448 128V160H384zM448 384C448 437 405 480 352 480H320V416H352C369.7 416 384 401.7 384 384V352H448V384zM64 384C64 401.7 78.33 416 96 416H128V480H96C42.98 480 0 437 0 384V352H64V384zM160 480V416H288V480H160zM160 32H288V96H160V32z"/></svg>

<svg xmlns="http://www.w3.org/2000/svg" viewBox="0 0 448 512"><!--! Font Awesome Pro 6.5.1 by @fontawesome - https://fontawesome.com License - https://fontawesome.com/license (Commercial License) Copyright 2023 Fonticons, Inc. --><path d="M96 32h32V96H96c-17.7 0-32 14.3-32 32v32H0V128C0 75 43 32 96 32zM0 192H64V320H0V192zm384 0h64V320H384V192zm64-32H384V128c0-17.7-14.3-32-32-32H320V32h32c53 0 96 43 96 96v32zm0 192v32c0 53-43 96-96 96H320V416h32c17.7 0 32-14.3 32-32V352h64zM64 352v32c0 17.7 14.3 32 32 32h32v64H96c-53 0-96-43-96-96V352H64zm96 128V416H288v64H160zm0-384V32H288V96H160z"/></svg>
